X:412
T:Leitrim Jig
M:6/8
L:1/8
K:G
"G"GBG "D"FAF|"Em"E2 B BAB|"G"GBG "D"FAF|DFA AFD|
"G"GBG "D"FAF|"Em"E2 B BAB|"G"GAB dBG|"D"A2 G FED:|
|:"G"GAB dBd|"C"edB "G"dBA|GAB dBG|"D"A2 G FED|
"G"GAB dBd|"C"edB "D"def|"Em"gfe "G"dBG|"D"A2 G FED:|
